X:1
T:Title
%%score 1 { 2 | 3 }
L:1/8
Q:1/4=95
M:3/4
K:C
V:1 treble nm="Grand Piano, Soprano"
V:2 bass nm="Choir Pad, The Christmas Story"
V:3 bass 
V:1
 [EG]>[DF] [CE]3 C | [CE][EG] [FA]2 [EG]2 | [EG]>[Ec] [FB]3 [FG] | [FA][FG] [Ec]4 | %4
w: By~B.~T.~Worden * * *||||
 [EG]>[DF] [CE]3 C | [CE][EG] [FA]2 [EG]2 | [EG]>[Ec] [DB]3 [DG] | [GB]>[^FA] G4 | %8
w: ||||
 [DG]>[DG] [DF]3 D | [DA][DG] [CE]2 [EG]2 | [EG]>[EG] [DF]3 D | [DA][DG] [CE]4 | %12
w: ||||
 [CE]>[EG] [Ec]3 [EG] | [DF][CE] D2 [DA]2 | [_EA]>[EA] [=EG]3 D | [DG][DF] [CE]4 | %16
w: ||||
 [CE]>[EG] [Ec]3 [Ge] | [Gd][Gc] [FA]2 [Fc]2 | [_EB][EA] [=EG][CE] [B,E]2- | [B,E][B,D] C4- | %20
w: ||||
 C4 z2 |] %21
w: |
V:2
 C>C G,3 E, | G,[K:treble]C C2 C2 | C>C D3[K:bass] B, | G,G, G,4 | C>C G,3 E, | %5
 G,[K:treble]C C2 C2 | C>G,[K:bass] G,3 B, | D>C B,4 | B,>B, B,3 B, | B,B,[K:treble] C2 C2 | %10
 C>C B,3[K:bass] B, | B,B, C4 | G,>G, G,3 G, | G,G, A,2 A,2 | C>C C3 B, | B,B, C4 | C>C G,3 C | %17
 B,C C2[K:bass] A,2 | A,C CG, G,2- | G,F, E,4- | E,4 z2 |] %21
V:3
 C,>C, C,3 C, | C,C, C,2 C,2 | C,>C, G,3 G, | z2 C,4 | C,>C, C,3 C, | C,C, C,2 C,2 | C,>C, D,3 D, | %7
 D,>D, [G,,G,]4 | G,>G, G,3 G, | G,G, C,2 C,2 | C,>C, G,3 G, | G,G, C,4 | C,>C, C,3 C, | %13
 D,E, F,2 F,2 | ^F,>F, G,3 G, | G,G, C,4 | C,>C, C,3 C, | D,E, F,2 F,2 | ^F,F, .G,2 G,,2- | %19
 G,,G,, C,4- | C,4 z2 |] %21

